src/lib/packages/icons/src/assets/filled/cloud-upload.svg

<svg width="24" height="24" viewBox="0 0 24 24" fill="none" xmlns="http://www.w3.org/2000/svg">
<path d="M21 10.95C21 13.71 18.76 15.95 16 15.95H12.75V12.811L13.47 13.531C13.616 13.677 13.808 13.751 14 13.751C14.192 13.751 14.384 13.678 14.53 13.531C14.823 13.238 14.823 12.763 14.53 12.47L12.53 10.47C12.461 10.401 12.3779 10.346 12.2859 10.308C12.1029 10.232 11.8959 10.232 11.7129 10.308C11.6209 10.346 11.538 10.401 11.469 10.47L9.46899 12.47C9.17599 12.763 9.17599 13.238 9.46899 13.531C9.76199 13.824 10.237 13.824 10.53 13.531L11.25 12.811V15.95H9.5C5.91 15.95 3 13.04 3 9.45001C3 5.86001 5.91 2.95001 9.5 2.95001C11.146 2.95001 12.648 3.56298 13.792 4.57098C14.274 4.99598 14.692 5.49098 15.031 6.03998C15.351 5.97998 15.671 5.95001 16.001 5.95001C18.76 5.95001 21 8.19001 21 10.95ZM11.25 21C11.25 21.414 11.586 21.75 12 21.75C12.414 21.75 12.75 21.414 12.75 21V15.95H11.25V21Z" fill="currentColor"/>
</svg>

<svg xmlns="http://www.w3.org/2000/svg" width="24" height="24" fill="none"><path fill="currentColor" d="M21 10.95c0 2.76-2.24 5-5 5h-3.25v-3.139l.72.72a.748.748 0 0 0 1.06 0 .75.75 0 0 0 0-1.061l-2-2a.75.75 0 0 0-.817-.162.749.749 0 0 0-.244.162l-2 2a.75.75 0 1 0 1.061 1.061l.72-.72v3.139H9.5a6.5 6.5 0 1 1 5.531-9.91c.32-.06.64-.09.97-.09a5.002 5.002 0 0 1 4.999 5ZM11.25 21a.75.75 0 0 0 1.5 0v-5.05h-1.5V21Z"/></svg>
